images/logo/logo-header-1920.svg

<svg width="199" height="33" viewBox="0 0 199 33" fill="none" xmlns="http://www.w3.org/2000/svg">
<g clip-path="url(#clip0_1_1995)">
<path d="M49 26H0L24.5 0L49 26ZM13.3075 13.1309L16.6442 16.6702L19.981 13.1309L16.6442 9.58115L13.3075 13.1309ZM16.6442 25.0052L19.981 21.466L16.6442 17.9162L13.3075 21.466L16.6442 25.0052ZM32.4083 25.0052L35.745 21.466L32.4083 17.9162L29.019 21.466L32.4083 25.0052ZM28.4673 5.40314C28.4473 5.43762 28.4207 5.46941 28.3885 5.49738C27.3507 6.6178 26.2997 7.73822 25.2357 8.84817C25.1437 8.94241 25.2357 9.00524 25.2357 9.08901L28.3097 12.356L28.4542 12.4921L31.7909 8.96335L28.4673 5.40314ZM8.78847 25.0052L8.91984 24.8691L11.9938 21.6126C12.0428 21.5717 12.0702 21.5173 12.0702 21.4607C12.0702 21.4042 12.0428 21.3498 11.9938 21.3089C11.0611 20.3456 10.1547 19.3613 9.23512 18.3874L8.78847 17.9162L5.45174 21.466L8.78847 25.0052ZM17.2354 8.95288L20.5721 12.4921L20.6772 12.3979L23.8169 9.06806C23.922 8.95288 23.8169 8.89005 23.8169 8.80628L20.7429 5.56021L20.6115 5.42408L17.2354 8.95288ZM17.2354 17.3298L20.5721 20.8691L20.7429 20.7016C21.7413 19.6545 22.7528 18.6073 23.7643 17.4869C23.7926 17.4663 23.8152 17.4412 23.8307 17.4133C23.8461 17.3853 23.8541 17.3551 23.8541 17.3246C23.8541 17.2941 23.8461 17.2639 23.8307 17.2359C23.8152 17.208 23.7926 17.1829 23.7643 17.1623C22.8185 16.1675 21.8727 15.1728 20.9399 14.1675L20.5721 13.7906L17.2354 17.3298ZM32.9995 17.3298L36.3362 20.8691L39.6729 17.3298L36.3362 13.7906L32.9995 17.3298ZM28.4673 13.7801V13.8534L25.3013 17.2147C25.1962 17.3089 25.2357 17.3717 25.3013 17.4555L28.244 20.5969C28.3228 20.6911 28.4147 20.7853 28.5198 20.8901L31.8566 17.3508L28.4673 13.7801ZM12.7295 20.8482C12.7453 20.8175 12.7675 20.7892 12.7952 20.7644L15.9611 17.4031C16.0531 17.2984 15.9611 17.2461 15.9611 17.1623L12.8477 13.8953C12.8069 13.8484 12.7583 13.8061 12.7032 13.7696L9.37962 17.2984L12.7295 20.8482ZM32.3558 16.6597L35.6925 13.1204L32.3558 9.59162L29.019 13.1309L32.3558 16.6597ZM24.4737 8.28272L27.8105 4.74346L24.5263 1.27749H24.4606L21.2552 4.71204C21.2354 4.73712 21.2249 4.76616 21.2249 4.79581C21.2249 4.82546 21.2354 4.8545 21.2552 4.87958L24.4737 8.28272ZM24.4737 16.6597L27.8105 13.1204L24.5 9.58115L21.1633 13.1309L24.4737 16.6597ZM24.4737 25.0366L27.8105 21.4974L24.4737 17.9476L21.1633 21.466L24.4737 25.0366ZM40.2378 25.0366L43.5745 21.4974L40.2509 17.9791H40.1853L36.9668 21.3613C36.8617 21.4764 36.9668 21.5288 36.9668 21.6021L39.5941 24.4398L40.2378 25.0366ZM1.89169 25.2356H7.88204L4.91314 22.0942L1.89169 25.2356ZM41.1705 25.2356H47.1083L44.1394 22.0942L41.1705 25.2356ZM23.5542 25.2356L20.5721 22.0942L17.5901 25.2356H23.5542ZM33.3147 25.2356H39.2525L36.2836 22.0942L33.3147 25.2356ZM31.3968 25.2356L28.4279 22.0942L25.459 25.2356H31.3968ZM15.6327 25.2356L12.6638 22.0942L9.69491 25.2356H15.6327Z" fill="white"/>
</g>
<path d="M75.26 25.72H75.4C75.5493 25.72 75.68 25.6733 75.792 25.58C75.904 25.468 75.9973 25.3373 76.072 25.188C76.1653 25.0387 76.2307 24.88 76.268 24.712C76.324 24.544 76.352 24.3853 76.352 24.236V9.256C76.352 9.12533 76.324 8.976 76.268 8.808C76.2307 8.64 76.1653 8.48133 76.072 8.332C75.9973 8.18267 75.904 8.06133 75.792 7.968C75.68 7.856 75.5493 7.8 75.4 7.8H75.26V7.52H79.292V7.8H79.152C79.0027 7.8 78.872 7.856 78.76 7.968C78.648 8.06133 78.5547 8.18267 78.48 8.332C78.4053 8.48133 78.34 8.64 78.284 8.808C78.2467 8.976 78.228 9.12533 78.228 9.256V24.964H84.36C84.7147 24.964 85.0227 24.88 85.284 24.712C85.5453 24.544 85.76 24.3387 85.928 24.096C86.1147 23.8347 86.2453 23.564 86.32 23.284C86.4133 22.9853 86.46 22.7147 86.46 22.472H86.74V26H75.26V25.72ZM101.563 7.24C103.019 7.24 104.326 7.50133 105.483 8.024C106.641 8.528 107.621 9.21867 108.423 10.096C109.245 10.9547 109.87 11.9627 110.299 13.12C110.747 14.2587 110.971 15.4533 110.971 16.704C110.971 18.104 110.71 19.392 110.187 20.568C109.683 21.744 108.983 22.752 108.087 23.592C107.191 24.432 106.146 25.0947 104.951 25.58C103.775 26.0467 102.515 26.28 101.171 26.28C99.7339 26.28 98.4365 26.0187 97.2792 25.496C96.1405 24.9733 95.1699 24.2827 94.3672 23.424C93.5832 22.5653 92.9765 21.576 92.5472 20.456C92.1179 19.336 91.9032 18.1693 91.9032 16.956C91.9032 15.7613 92.1179 14.5853 92.5472 13.428C92.9765 12.252 93.6019 11.2067 94.4232 10.292C95.2632 9.37733 96.2805 8.64 97.4752 8.08C98.6699 7.52 100.033 7.24 101.563 7.24ZM101.535 25.3C102.786 25.244 103.878 24.964 104.811 24.46C105.763 23.9373 106.557 23.284 107.191 22.5C107.826 21.6973 108.293 20.82 108.591 19.868C108.909 18.916 109.067 17.9733 109.067 17.04C109.067 16.0133 108.881 14.9773 108.507 13.932C108.134 12.8867 107.602 11.944 106.911 11.104C106.221 10.2453 105.39 9.55467 104.419 9.032C103.467 8.49067 102.394 8.22 101.199 8.22C100.042 8.22 99.0059 8.48133 98.0912 9.004C97.1765 9.508 96.3925 10.1613 95.7392 10.964C95.1045 11.7667 94.6192 12.6627 94.2832 13.652C93.9472 14.6413 93.7792 15.612 93.7792 16.564C93.7792 17.5907 93.9752 18.6267 94.3672 19.672C94.7592 20.6987 95.3005 21.632 95.9912 22.472C96.6819 23.312 97.4939 23.9933 98.4272 24.516C99.3792 25.0387 100.415 25.3 101.535 25.3ZM118.428 7.52H122.404V7.8H122.264C122.115 7.8 121.984 7.856 121.872 7.968C121.76 8.06133 121.657 8.18267 121.564 8.332C121.489 8.48133 121.433 8.64 121.396 8.808C121.359 8.976 121.34 9.12533 121.34 9.256V20.316C121.34 21.044 121.415 21.716 121.564 22.332C121.713 22.948 121.965 23.48 122.32 23.928C122.675 24.376 123.141 24.7307 123.72 24.992C124.299 25.2347 125.008 25.356 125.848 25.356C126.781 25.356 127.528 25.2067 128.088 24.908C128.648 24.6093 129.077 24.2267 129.376 23.76C129.675 23.2747 129.871 22.7333 129.964 22.136C130.057 21.5387 130.104 20.9507 130.104 20.372V9.256C130.104 9.12533 130.085 8.976 130.048 8.808C130.011 8.64 129.945 8.48133 129.852 8.332C129.777 8.18267 129.684 8.06133 129.572 7.968C129.46 7.856 129.339 7.8 129.208 7.8H129.068V7.52H132.12V7.8H131.98C131.831 7.8 131.7 7.856 131.588 7.968C131.495 8.06133 131.401 8.18267 131.308 8.332C131.233 8.48133 131.177 8.64 131.14 8.808C131.103 8.976 131.084 9.12533 131.084 9.256V20.288C131.084 21.5013 130.935 22.5 130.636 23.284C130.337 24.0493 129.927 24.656 129.404 25.104C128.881 25.552 128.265 25.86 127.556 26.028C126.865 26.196 126.128 26.28 125.344 26.28C124.504 26.28 123.72 26.1867 122.992 26C122.283 25.832 121.667 25.524 121.144 25.076C120.621 24.628 120.211 24.0213 119.912 23.256C119.613 22.472 119.464 21.492 119.464 20.316V9.256C119.464 9.12533 119.445 8.976 119.408 8.808C119.371 8.64 119.305 8.48133 119.212 8.332C119.137 8.18267 119.044 8.06133 118.932 7.968C118.82 7.856 118.699 7.8 118.568 7.8H118.428V7.52ZM142.076 8.5C142.076 8.612 142.104 8.752 142.16 8.92L147.088 22.192L152.016 8.78C152.034 8.74267 152.053 8.68667 152.072 8.612C152.09 8.53733 152.1 8.48133 152.1 8.444C152.1 8.22 152.006 8.06133 151.82 7.968C151.652 7.856 151.493 7.8 151.344 7.8V7.52H154.396V7.8C154.116 7.8 153.854 7.87467 153.612 8.024C153.388 8.17333 153.21 8.42533 153.08 8.78L146.668 26.336L140.116 8.864C140.004 8.584 139.836 8.34133 139.612 8.136C139.406 7.93067 139.145 7.81867 138.828 7.8V7.52H142.804V7.8C142.636 7.8 142.468 7.86533 142.3 7.996C142.15 8.108 142.076 8.276 142.076 8.5ZM165.076 25.72H165.216V26H161.268V25.72H161.408C161.538 25.72 161.66 25.664 161.772 25.552C161.884 25.44 161.977 25.3093 162.052 25.16C162.145 25.0107 162.21 24.852 162.248 24.684C162.285 24.4973 162.304 24.3293 162.304 24.18V9.256C162.304 9.12533 162.285 8.976 162.248 8.808C162.21 8.64 162.145 8.48133 162.052 8.332C161.977 8.18267 161.884 8.06133 161.772 7.968C161.66 7.856 161.538 7.8 161.408 7.8H161.268V7.52H166.14C168.006 7.52 169.444 7.884 170.452 8.612C171.478 9.34 171.992 10.4133 171.992 11.832C171.992 12.5413 171.87 13.1667 171.628 13.708C171.404 14.2307 171.096 14.688 170.704 15.08C170.312 15.4533 169.845 15.7613 169.304 16.004C168.781 16.228 168.221 16.396 167.624 16.508L169.64 19.588C170.125 20.3347 170.62 21.072 171.124 21.8C171.628 22.5093 172.122 23.2467 172.608 24.012C172.738 24.1987 172.878 24.3947 173.028 24.6C173.196 24.8053 173.364 24.992 173.532 25.16C173.718 25.328 173.905 25.468 174.092 25.58C174.297 25.6733 174.502 25.72 174.708 25.72V26H173.504C172.757 26 172.141 25.8227 171.656 25.468C171.189 25.0947 170.797 24.6653 170.48 24.18C169.64 22.948 168.8 21.6973 167.96 20.428C167.138 19.1587 166.317 17.908 165.496 16.676C165.29 16.6573 165.066 16.6387 164.824 16.62C164.6 16.5827 164.385 16.5453 164.18 16.508V24.18C164.18 24.3293 164.198 24.4973 164.236 24.684C164.273 24.852 164.329 25.0107 164.404 25.16C164.497 25.3093 164.59 25.44 164.684 25.552C164.796 25.664 164.926 25.72 165.076 25.72ZM164.18 8.472V15.584H164.32C164.469 15.6027 164.702 15.6213 165.02 15.64C165.356 15.64 165.766 15.64 166.252 15.64C166.644 15.64 167.054 15.584 167.484 15.472C167.932 15.3413 168.342 15.136 168.716 14.856C169.108 14.5573 169.425 14.1747 169.668 13.708C169.929 13.2413 170.06 12.6533 170.06 11.944C170.06 11.2347 169.92 10.656 169.64 10.208C169.378 9.76 169.005 9.40533 168.52 9.144C168.053 8.88267 167.484 8.70533 166.812 8.612C166.14 8.51867 165.402 8.472 164.6 8.472H164.18ZM181.389 25.72H181.529C181.678 25.72 181.809 25.6733 181.921 25.58C182.033 25.468 182.126 25.3373 182.201 25.188C182.294 25.0387 182.36 24.88 182.397 24.712C182.453 24.544 182.481 24.3853 182.481 24.236V9.256C182.481 9.12533 182.453 8.976 182.397 8.808C182.36 8.64 182.294 8.48133 182.201 8.332C182.126 8.18267 182.033 8.06133 181.921 7.968C181.809 7.856 181.678 7.8 181.529 7.8H181.389V7.52H192.169V10.124H191.889C191.852 9.69467 191.684 9.32133 191.385 9.004C191.086 8.668 190.62 8.5 189.985 8.5H184.357V15.584H189.005C189.434 15.584 189.789 15.4533 190.069 15.192C190.368 14.9307 190.517 14.6227 190.517 14.268H190.797V17.768H190.517C190.517 17.432 190.377 17.1427 190.097 16.9C189.817 16.6573 189.453 16.536 189.005 16.536H184.357V25.02H190.489C190.844 25.02 191.152 24.936 191.413 24.768C191.674 24.6 191.889 24.404 192.057 24.18C192.244 23.9373 192.374 23.6853 192.449 23.424C192.542 23.144 192.589 22.9107 192.589 22.724H192.869V26H181.389V25.72Z" fill="white"/>
<defs>
<clipPath id="clip0_1_1995">
<rect width="49" height="26" fill="white"/>
</clipPath>
</defs>
</svg>

<svg xmlns="http://www.w3.org/2000/svg" width="199" height="33" fill="none"><g clip-path="url(#a)"><path fill="#fff" d="M49 26H0L24.5 0zM13.308 13.13l3.336 3.54 3.337-3.54-3.337-3.549zm3.336 11.875 3.337-3.539-3.337-3.55-3.336 3.55zm15.764 0 3.337-3.539-3.337-3.55-3.389 3.55zm-3.94-19.602a.4.4 0 0 1-.08.094 269 269 0 0 1-3.152 3.351c-.092.094 0 .157 0 .241l3.074 3.267.144.136 3.337-3.529zM8.787 25.005l.132-.136 3.074-3.256a.2.2 0 0 0 .076-.152.2.2 0 0 0-.076-.152c-.933-.963-1.84-1.948-2.759-2.922l-.447-.47-3.336 3.549zm8.447-16.052 3.337 3.54.105-.095 3.14-3.33c.105-.115 0-.178 0-.262L20.743 5.56l-.131-.136zm0 8.377 3.337 3.54.17-.168c1-1.048 2.01-2.095 3.022-3.215a.2.2 0 0 0 .067-.074.2.2 0 0 0 .023-.088q0-.046-.023-.09a.2.2 0 0 0-.067-.073c-.945-.994-1.891-1.99-2.824-2.994l-.368-.377zm15.764 0 3.337 3.54 3.337-3.54-3.337-3.54zm-4.532-3.55v.073l-3.166 3.362c-.105.094-.065.157 0 .24l2.943 3.142c.079.094.17.188.276.293l3.337-3.54zM12.73 20.848a.3.3 0 0 1 .065-.084l3.166-3.36c.092-.106 0-.158 0-.242l-3.113-3.267a.7.7 0 0 0-.145-.125L9.38 17.298zm19.626-4.188 3.337-3.54-3.337-3.528-3.337 3.539zm-7.882-8.377 3.337-3.54-3.285-3.466h-.065l-3.206 3.435a.14.14 0 0 0-.03.084q0 .045.03.084zm0 8.377 3.337-3.54L24.5 9.581l-3.337 3.55zm0 8.377 3.337-3.54-3.337-3.55-3.31 3.519zm15.764 0 3.337-3.54-3.324-3.518h-.066l-3.218 3.382c-.105.115 0 .168 0 .241l2.627 2.838zm-38.346.199h5.99l-2.969-3.142zm39.278 0h5.938l-2.969-3.142zm-17.616 0-2.982-3.142-2.982 3.142zm9.76 0h5.938l-2.968-3.142zm-1.917 0-2.97-3.142-2.968 3.142zm-15.764 0-2.97-3.142-2.968 3.142z"/></g><path fill="#fff" d="M75.26 25.72h.14q.225 0 .392-.14.168-.168.28-.392a1.5 1.5 0 0 0 .196-.476q.084-.252.084-.476V9.256q0-.195-.084-.448a1.5 1.5 0 0 0-.196-.476 1.1 1.1 0 0 0-.28-.364.54.54 0 0 0-.392-.168h-.14v-.28h4.032v.28h-.14q-.225 0-.392.168a1.1 1.1 0 0 0-.28.364q-.112.225-.196.476a2 2 0 0 0-.056.448v15.708h6.132q.532 0 .924-.252t.644-.616q.28-.392.392-.812.14-.449.14-.812h.28V26H75.26zm26.303-18.48q2.184 0 3.92.784 1.737.756 2.94 2.072a8.7 8.7 0 0 1 1.876 3.024 9.7 9.7 0 0 1 .672 3.584q0 2.1-.784 3.864a8.9 8.9 0 0 1-2.1 3.024 10.1 10.1 0 0 1-3.136 1.988q-1.764.7-3.78.7-2.156 0-3.892-.784a9.2 9.2 0 0 1-2.912-2.072 9.3 9.3 0 0 1-1.82-2.968 9.7 9.7 0 0 1-.644-3.5q0-1.792.644-3.528a9.6 9.6 0 0 1 1.876-3.136q1.26-1.372 3.052-2.212t4.088-.84m-.028 18.06q1.877-.084 3.276-.84 1.428-.784 2.38-1.96a8.1 8.1 0 0 0 1.4-2.632 8.9 8.9 0 0 0 .476-2.828 9.2 9.2 0 0 0-.56-3.108 9.4 9.4 0 0 0-1.596-2.828 8.1 8.1 0 0 0-2.492-2.072q-1.428-.812-3.22-.812-1.736 0-3.108.784a8 8 0 0 0-2.352 1.96 8.9 8.9 0 0 0-1.456 2.688 9 9 0 0 0-.504 2.912q0 1.54.588 3.108a10 10 0 0 0 1.624 2.8 8.5 8.5 0 0 0 2.436 2.044 6.35 6.35 0 0 0 3.108.784m16.893-17.78h3.976v.28h-.14a.54.54 0 0 0-.392.168 1.5 1.5 0 0 0-.308.364q-.112.225-.168.476a2 2 0 0 0-.056.448v11.06q0 1.092.224 2.016t.756 1.596 1.4 1.064q.868.364 2.128.364 1.4 0 2.24-.448t1.288-1.148a4.3 4.3 0 0 0 .588-1.624q.14-.896.14-1.764V9.256q0-.195-.056-.448a1.5 1.5 0 0 0-.196-.476 1.1 1.1 0 0 0-.28-.364.5.5 0 0 0-.364-.168h-.14v-.28h3.052v.28h-.14a.54.54 0 0 0-.392.168 2 2 0 0 0-.28.364q-.113.225-.168.476a2 2 0 0 0-.056.448v11.032q0 1.82-.448 2.996-.448 1.148-1.232 1.82a4.3 4.3 0 0 1-1.848.924 9.3 9.3 0 0 1-2.212.252q-1.26 0-2.352-.28a4.3 4.3 0 0 1-1.848-.924q-.784-.672-1.232-1.82-.448-1.176-.448-2.94V9.256q0-.195-.056-.448a1.5 1.5 0 0 0-.196-.476 1.1 1.1 0 0 0-.28-.364.5.5 0 0 0-.364-.168h-.14zm23.648.98q0 .168.084.42l4.928 13.272 4.928-13.412a1 1 0 0 0 .056-.168 1 1 0 0 0 .028-.168q0-.336-.28-.476a.87.87 0 0 0-.476-.168v-.28h3.052v.28q-.42 0-.784.224-.336.224-.532.756l-6.412 17.556-6.552-17.472a2 2 0 0 0-.504-.728 1.17 1.17 0 0 0-.784-.336v-.28h3.976v.28a.82.82 0 0 0-.504.196q-.224.168-.224.504m23 17.22h.14V26h-3.948v-.28h.14a.5.5 0 0 0 .364-.168q.168-.168.28-.392.14-.224.196-.476.056-.28.056-.504V9.256q0-.195-.056-.448a1.5 1.5 0 0 0-.196-.476 1.1 1.1 0 0 0-.28-.364.5.5 0 0 0-.364-.168h-.14v-.28h4.872q2.8 0 4.312 1.092 1.54 1.092 1.54 3.22 0 1.065-.364 1.876-.336.784-.924 1.372a5 5 0 0 1-1.4.924 8 8 0 0 1-1.68.504l2.016 3.08q.728 1.12 1.484 2.212.756 1.065 1.484 2.212.195.28.42.588.252.308.504.56.28.252.56.42.307.14.616.14V26h-1.204q-1.12 0-1.848-.532a5.5 5.5 0 0 1-1.176-1.288q-1.26-1.848-2.52-3.752-1.233-1.904-2.464-3.752a51 51 0 0 0-.672-.056 44 44 0 0 1-.644-.112v7.672q0 .224.056.504.055.252.168.476.14.225.28.392a.54.54 0 0 0 .392.168m-.896-17.248v7.112h.14q.223.028.7.056h1.232q.587 0 1.232-.168.672-.196 1.232-.616.588-.448.952-1.148.392-.7.392-1.764t-.42-1.736a2.8 2.8 0 0 0-1.12-1.064q-.7-.392-1.708-.532t-2.212-.14zm17.209 17.248h.14q.224 0 .392-.14.168-.168.28-.392a1.5 1.5 0 0 0 .196-.476q.084-.252.084-.476V9.256q0-.195-.084-.448a1.5 1.5 0 0 0-.196-.476 1.1 1.1 0 0 0-.28-.364.54.54 0 0 0-.392-.168h-.14v-.28h10.78v2.604h-.28a1.82 1.82 0 0 0-.504-1.12q-.448-.504-1.4-.504h-5.628v7.084h4.648q.644 0 1.064-.392.448-.392.448-.924h.28v3.5h-.28q0-.504-.42-.868t-1.092-.364h-4.648v8.484h6.132q.532 0 .924-.252t.644-.588q.28-.364.392-.756.14-.42.14-.7h.28V26h-11.48z"/><defs><clipPath id="a"><path fill="#fff" d="M0 0h49v26H0z"/></clipPath></defs></svg>
